src/assets/images/partners/certik.svg

<svg width="159" height="36" viewBox="0 0 159 36" fill="none" xmlns="http://www.w3.org/2000/svg">
<g clip-path="url(#clip0)">
<path d="M15.0033 1.87598L25.219 4.89853C25.3619 4.94504 25.5048 5.08454 25.5524 5.22404C25.6 5.36354 25.6477 5.50305 25.6 5.68905C25.5524 5.82855 25.4572 5.96805 25.3143 6.06106C25.1714 6.15406 25.0285 6.15406 24.8857 6.15406L15.0033 3.29425L5.19245 6.17731C5.04957 6.22381 4.85907 6.17731 4.76381 6.08431C4.62094 5.99131 4.52569 5.8983 4.47806 5.7123C4.43043 5.5728 4.43043 5.38679 4.52569 5.24729C4.57331 5.10779 4.71619 5.01479 4.85907 4.92179L15.0033 1.87598Z" fill="#222"/>
<path d="M29.7911 6.64199C29.7911 6.50249 29.6958 6.36299 29.6006 6.26999C29.5053 6.17699 29.3624 6.13049 29.2196 6.08398C29.0767 6.08398 28.9338 6.08398 28.8385 6.13048C28.6957 6.17699 28.6004 6.26999 28.5528 6.40949L22.6234 17.7092H7.45463L1.54905 6.45599C1.50143 6.36299 1.40617 6.26999 1.2633 6.17699C1.16805 6.13049 1.02517 6.08398 0.882293 6.08398C0.739416 6.08398 0.596539 6.17699 0.477474 6.26999C0.382223 6.36299 0.286972 6.50249 0.286972 6.64199C-0.23691 10.2923 -0.0464076 14.0356 0.882293 17.6162C2.33487 23.2428 6.02586 29.8227 14.7414 33.9845L15.0271 34.124L15.3129 33.9845C24.0284 29.8227 27.767 23.2428 29.2196 17.6162C30.1244 14.0356 30.3149 10.3388 29.7911 6.64199ZM2.14437 17.3372C1.47761 14.5936 1.16805 11.7571 1.35855 8.92054L6.50212 18.709L13.4793 31.892C6.45449 27.9162 3.38264 22.243 2.14437 17.3372ZM15.0033 32.0315L8.1452 19.0345H21.8852L15.0033 32.0315ZM27.886 17.3372C26.624 22.2895 23.5283 27.9627 16.5035 31.892L23.5283 18.709L28.6719 8.92054C28.8624 11.7106 28.6242 14.5471 27.886 17.3372Z" fill="#222"/>
<path d="M43.2773 24.2689C43.49 24.4765 43.7558 24.6582 44.0483 24.788C44.3407 24.9178 44.6331 24.9697 44.9521 24.9437H56.7284V23.3864H44.9521C44.7394 23.3864 44.5533 23.3085 44.3938 23.1787C44.2609 23.023 44.1812 22.8413 44.1812 22.6337V13.3936C44.1812 13.2898 44.2078 13.2119 44.2343 13.1081C44.2609 13.0302 44.3407 12.9264 44.3938 12.8745C44.4736 12.7966 44.5533 12.7447 44.6331 12.6928C44.7394 12.6409 44.8192 12.6409 44.9255 12.6409H56.7284V11.0836H44.9521C44.6331 11.0836 44.3407 11.1355 44.0483 11.2653C43.7558 11.3691 43.49 11.5508 43.2773 11.7584C43.0647 11.9661 42.8786 12.2256 42.7723 12.5111C42.6659 12.7966 42.5862 13.0821 42.5862 13.3936V22.6337C42.5862 22.9451 42.6393 23.2307 42.7457 23.5162C42.8786 23.8017 43.0647 24.0612 43.2773 24.2689ZM65.873 11.0836V24.9437H78.8455V23.3864H67.4945V18.7923H76.6126V17.209H67.4945V12.6149H78.8455V11.0576H65.873V11.0836ZM87.9635 24.9437V11.1095H99.793C100.431 11.1095 101.016 11.3691 101.468 11.7844C101.92 12.2256 102.159 12.7966 102.159 13.4196V17.4686C102.159 17.78 102.106 18.0656 101.973 18.3511C101.867 18.6366 101.68 18.8961 101.468 19.1038C101.255 19.3114 100.989 19.4931 100.697 19.5969C100.404 19.7007 100.112 19.7786 99.793 19.7526H97.6132L102.079 24.8918V24.9178H99.9791L95.5397 19.7526L89.5585 19.7267V24.8918H87.9635V24.9437ZM90.3294 18.2213H99.793C99.8993 18.2213 99.9791 18.1953 100.085 18.1694C100.165 18.1434 100.272 18.0656 100.325 18.0136C100.404 17.9358 100.458 17.8579 100.484 17.78C100.511 17.7022 100.537 17.5984 100.537 17.4945V13.4196C100.537 13.3157 100.511 13.2379 100.484 13.134C100.458 13.0562 100.378 12.9524 100.325 12.9004C100.272 12.8226 100.165 12.7707 100.085 12.7188C100.006 12.6668 99.8993 12.6668 99.793 12.6668H90.3294C90.2231 12.6668 90.1168 12.6928 90.037 12.7188C89.9307 12.7707 89.8509 12.8226 89.7978 12.9004C89.718 12.9783 89.6649 13.0562 89.6383 13.134C89.6117 13.2119 89.5851 13.3157 89.5851 13.4196V17.4686C89.5851 17.5724 89.6117 17.6503 89.6383 17.7541C89.6649 17.832 89.718 17.9358 89.7978 17.9877C89.9307 18.1434 90.1168 18.2213 90.3294 18.2213ZM116.886 12.6409V24.9437H118.481V12.6409H124.781V11.0836H110.586V12.6409H116.886ZM133.208 11.0836H134.83V24.9437H133.208V11.0836ZM144.559 11.0836V24.9437H146.181V18.7923H150.753L156.043 24.9437H158.116V24.9178L152.162 18.0136L158.09 11.1095V11.0836H156.043L150.753 17.235H146.181V11.0836H144.559Z" fill="#222"/>
<path d="M134.856 24.9693H133.181V11.0573H134.856V24.9693ZM133.234 24.9174H134.803V11.1092H133.234V24.9174ZM158.143 24.9693H156.043L150.753 18.8439H146.207V24.9953H144.532V11.0832H146.207V17.2346H150.726L156.016 11.0832H158.116V11.1351L152.188 18.0393L158.143 24.9693ZM156.069 24.9174H158.09L152.135 18.0133L152.162 17.9873L158.063 11.1092H156.069L150.779 17.2606H146.154V11.1092H144.585V24.9174H146.154V18.766H150.779L156.069 24.9174ZM118.507 24.9693H116.859V12.6665H110.559V11.0573H124.808V12.6665H118.507V24.9693ZM116.912 24.9174H118.454V12.6146H124.754V11.1092H110.612V12.6146H116.912V24.9174ZM102.106 24.9693H99.9524L95.5131 19.8302L89.585 19.8042V24.9953H87.9369V11.0832H99.7929C100.431 11.0832 101.042 11.3428 101.468 11.784C101.92 12.2253 102.159 12.8222 102.185 13.4192V17.4942C102.185 17.8057 102.132 18.1171 101.999 18.4026C101.866 18.6881 101.707 18.9477 101.468 19.1553C101.255 19.363 100.989 19.5447 100.697 19.6744C100.404 19.8042 100.085 19.8561 99.7664 19.8561H97.6663L102.079 24.9693H102.106ZM99.979 24.9174H102.026L97.56 19.7523H99.7929C100.085 19.7523 100.404 19.7004 100.697 19.5706C100.989 19.4668 101.228 19.2851 101.441 19.0775C101.654 18.8698 101.84 18.6103 101.946 18.3248C102.053 18.0393 102.132 17.7537 102.132 17.4423V13.3933C102.132 12.7963 101.866 12.2253 101.441 11.784C101.016 11.3687 100.404 11.1092 99.7929 11.1092H87.9901V24.9174H89.5319V19.7263L95.5396 19.7523L99.979 24.9174ZM78.8721 24.9693H65.8463V11.0573H78.8721V12.6665H67.5211V17.1827H76.6391V18.8179H67.5211V23.3601H78.8721V24.9693ZM65.9261 24.9174H78.8189V23.412H67.4679V18.766H76.5859V17.2346H67.4679V12.5886H78.8189V11.0832H65.9261V24.9174ZM56.7815 24.9693H44.952C44.633 24.9693 44.314 24.9174 44.0216 24.7876C43.7292 24.6579 43.4634 24.5021 43.2507 24.2685C43.038 24.0609 42.852 23.8013 42.719 23.5158C42.5861 23.2303 42.533 22.9189 42.533 22.6074V13.3673C42.533 13.0558 42.5861 12.7444 42.719 12.4589C42.852 12.1734 43.0115 11.9138 43.2507 11.7062C43.4634 11.4985 43.7292 11.3168 44.0216 11.1871C44.314 11.0573 44.633 11.0054 44.952 11.0054H56.7815V12.6146H44.952C44.8457 12.6146 44.7659 12.6406 44.6596 12.6665C44.5799 12.6925 44.4735 12.7703 44.4204 12.8222C44.3406 12.8742 44.2874 12.952 44.2609 13.0558C44.2343 13.1337 44.2077 13.2375 44.2077 13.3154V22.5555C44.2077 22.6593 44.2343 22.7372 44.2609 22.841C44.2874 22.9189 44.3406 23.0227 44.4204 23.0746C44.5001 23.1524 44.5799 23.2044 44.6596 23.2303C44.7394 23.2563 44.8457 23.2822 44.952 23.2822H56.7815V24.9693ZM43.3039 24.2426C43.5165 24.4502 43.7824 24.6319 44.0748 24.7357C44.3672 24.8395 44.6596 24.9174 44.9786 24.8915H56.7283V23.386H44.952C44.7394 23.386 44.5267 23.3082 44.3672 23.1784C44.2077 23.0227 44.1279 22.815 44.1279 22.6074V13.3673C44.1279 13.2635 44.1545 13.1597 44.1811 13.0818C44.2077 12.978 44.2874 12.9001 44.3406 12.8222C44.4204 12.7444 44.5001 12.6925 44.6064 12.6406C44.7128 12.5886 44.8191 12.5886 44.9254 12.5886H56.6752V11.0832H44.952C44.633 11.0832 44.3406 11.1351 44.0482 11.2649C43.7558 11.3687 43.5165 11.5504 43.2773 11.7581C43.0646 11.9657 42.8785 12.2253 42.7722 12.5108C42.6659 12.7963 42.5861 13.0818 42.5861 13.3933V22.6333C42.5861 22.9448 42.6393 23.2303 42.7456 23.5158C42.9051 23.8013 43.0912 24.0349 43.3039 24.2426ZM99.7929 18.2469H90.3294C90.1167 18.2469 89.904 18.169 89.7445 18.0133C89.6648 17.9354 89.6116 17.8576 89.585 17.7537C89.5585 17.6499 89.5319 17.5721 89.5319 17.4682V13.4192C89.5319 13.3154 89.5585 13.2116 89.585 13.1337C89.6116 13.0299 89.6914 12.952 89.7445 12.8742C89.8243 12.7963 89.904 12.7444 90.0104 12.6925C90.1167 12.6406 90.223 12.6406 90.3294 12.6406H99.7929C99.8993 12.6406 100.006 12.6665 100.085 12.6925C100.192 12.7444 100.271 12.7963 100.325 12.8742C100.404 12.952 100.458 13.0299 100.484 13.1337C100.511 13.2375 100.537 13.3154 100.537 13.4192V17.4682C100.537 17.5721 100.511 17.6759 100.484 17.7537C100.458 17.8576 100.378 17.9354 100.325 18.0133C100.245 18.0912 100.165 18.1431 100.059 18.169C99.979 18.2209 99.8993 18.2469 99.7929 18.2469ZM90.3294 12.6925C90.223 12.6925 90.1433 12.7184 90.037 12.7444C89.9572 12.7703 89.8509 12.8482 89.7977 12.9001C89.718 12.978 89.6648 13.0558 89.6382 13.1337C89.6116 13.2116 89.585 13.3154 89.585 13.3933V17.4423C89.585 17.5461 89.6116 17.624 89.6382 17.7018C89.6648 17.7797 89.718 17.8576 89.7977 17.9354C89.9306 18.0652 90.1433 18.1431 90.3294 18.1431H99.7929C99.8993 18.1431 99.979 18.1171 100.059 18.0912C100.139 18.0652 100.218 18.0133 100.298 17.9354C100.378 17.8835 100.431 17.8057 100.458 17.7018C100.484 17.624 100.511 17.5201 100.511 17.4423V13.3933C100.511 13.2894 100.484 13.2116 100.458 13.1337C100.431 13.0558 100.378 12.978 100.298 12.9001C100.245 12.8222 100.165 12.7703 100.059 12.7444C99.979 12.7184 99.8727 12.6925 99.7664 12.6925H90.3294Z" fill="#222"/>
</g>
<defs>
<clipPath id="clip0">
<rect width="158.143" height="36" fill="#222"/>
</clipPath>
</defs>
</svg>

<svg xmlns="http://www.w3.org/2000/svg" width="159" height="36" fill="none" viewBox="0 0 159 36"><g fill="#222" clip-path="url(#a)"><path d="M15.003 1.876 25.22 4.899a.57.57 0 0 1 .333.325c.048.14.096.279.048.465a.73.73 0 0 1-.286.372c-.143.093-.285.093-.428.093l-9.883-2.86-9.81 2.883a.47.47 0 0 1-.43-.093c-.142-.093-.237-.186-.285-.372a.54.54 0 0 1 .048-.465c.047-.14.19-.232.333-.325z"/><path d="M29.791 6.642c0-.14-.095-.279-.19-.372-.096-.093-.239-.14-.381-.186-.143 0-.286 0-.381.046a.42.42 0 0 0-.286.28l-5.93 11.3H7.455L1.549 6.455q-.072-.14-.286-.279a.9.9 0 0 0-.38-.093c-.144 0-.286.093-.406.186-.095.093-.19.232-.19.372a28 28 0 0 0 .595 10.974c1.453 5.627 5.144 12.207 13.86 16.368l.285.14.286-.14c8.715-4.161 12.454-10.741 13.907-16.368a28.4 28.4 0 0 0 .571-10.974M2.144 17.337c-.666-2.743-.976-5.58-.785-8.416l5.143 9.788 6.977 13.183C6.454 27.916 3.383 22.243 2.144 17.337m12.86 14.695-6.86-12.997h13.74zm12.882-14.695c-1.262 4.953-4.358 10.626-11.382 14.555l7.024-13.183 5.144-9.788c.19 2.79-.048 5.626-.786 8.416m15.391 6.932c.213.208.479.39.771.519.293.13.585.182.904.156h11.776v-1.558H44.952a.87.87 0 0 1-.558-.207.83.83 0 0 1-.213-.545v-9.24c0-.104.027-.182.053-.286a.7.7 0 0 1 .16-.234c.08-.077.16-.13.24-.181.105-.052.185-.052.291-.052h11.803v-1.557H44.952c-.319 0-.611.052-.904.181a2.2 2.2 0 0 0-.77.493 2.1 2.1 0 0 0-.506.753c-.106.286-.186.571-.186.883v9.24c0 .311.053.597.16.882.133.286.319.545.531.753m22.596-13.185v13.86h12.972v-1.558h-11.35v-4.594h9.118V17.21h-9.118v-4.594h11.35v-1.557H65.874zm22.09 13.86V11.11h11.83c.638 0 1.223.26 1.675.674a2.25 2.25 0 0 1 .691 1.636v4.049c0 .311-.053.597-.186.882a2.1 2.1 0 0 1-.505.753c-.213.207-.479.39-.771.493-.293.104-.585.182-.904.156h-2.18l4.466 5.139v.026h-2.1l-4.44-5.165-5.98-.026v5.165h-1.596zm2.366-6.723h9.464c.106 0 .186-.026.292-.052a.8.8 0 0 0 .24-.155.6.6 0 0 0 .159-.234.9.9 0 0 0 .053-.286V13.42c0-.104-.026-.182-.053-.286a.7.7 0 0 0-.159-.234c-.053-.077-.16-.13-.24-.181-.079-.052-.186-.052-.292-.052h-9.464a1 1 0 0 0-.292.052.6.6 0 0 0-.24.181.6.6 0 0 0-.159.234.9.9 0 0 0-.053.286v4.049c0 .103.027.181.053.285a.47.47 0 0 0 .16.234.68.68 0 0 0 .531.233m26.557-5.58v12.303h1.595V12.64h6.3v-1.557h-14.195v1.557zm16.322-1.557h1.622v13.86h-1.622zm11.351 0v13.86h1.622v-6.152h4.572l5.29 6.152h2.073v-.026l-5.954-6.904 5.928-6.904v-.026h-2.047l-5.29 6.151h-4.572v-6.151z"/><path d="M134.856 24.97h-1.675V11.056h1.675zm-1.622-.053h1.569V11.11h-1.569zm24.909.052h-2.1l-5.29-6.125h-4.546v6.151h-1.675V11.083h1.675v6.152h4.519l5.29-6.152h2.1v.052l-5.928 6.904zm-2.074-.052h2.021l-5.955-6.904.027-.026 5.901-6.878h-1.994l-5.29 6.152h-4.625v-6.152h-1.569v13.808h1.569v-6.151h4.625zm-37.562.052h-1.648V12.666h-6.3v-1.609h14.249v1.61h-6.301zm-1.595-.052h1.542V12.615h6.3v-1.506h-14.142v1.506h6.3zm-14.806.052h-2.154l-4.439-5.139-5.928-.026v5.191h-1.648V11.083h11.856c.638 0 1.249.26 1.675.701.452.441.691 1.038.717 1.635v4.075c0 .312-.053.623-.186.909-.133.285-.292.545-.531.752-.213.208-.479.39-.771.52a2.3 2.3 0 0 1-.93.181h-2.1l4.412 5.113zm-2.127-.052h2.047l-4.466-5.165h2.233c.292 0 .611-.052.904-.181.292-.104.531-.286.744-.494.213-.207.399-.467.505-.752.107-.286.186-.571.186-.883v-4.049c0-.597-.266-1.168-.691-1.609a2.4 2.4 0 0 0-1.648-.675H87.99v13.808h1.542v-5.19l6.008.025zm-21.107.052H65.846V11.057h13.026v1.61h-11.35v4.516h9.117v1.635h-9.118v4.542h11.351zm-12.946-.052H78.82v-1.505H67.468v-4.646h9.118v-1.531h-9.118v-4.646h11.35v-1.506H65.927zm-9.144.052h-11.83c-.319 0-.638-.052-.93-.181-.293-.13-.559-.286-.771-.52a2.6 2.6 0 0 1-.532-.752 2.1 2.1 0 0 1-.186-.909v-9.24c0-.311.053-.623.186-.908s.292-.545.532-.753c.212-.207.478-.39.77-.519.293-.13.612-.182.931-.182h11.83v1.61h-11.83c-.106 0-.186.026-.292.051a.8.8 0 0 0-.24.156.38.38 0 0 0-.16.234 1 1 0 0 0-.052.26v9.24c0 .103.026.181.053.285.026.078.08.182.16.234q.12.116.239.155c.08.026.186.052.292.052h11.83zm-13.478-.726c.212.207.478.389.77.493s.586.181.905.155h11.75v-1.505H44.951a.94.94 0 0 1-.585-.208.8.8 0 0 1-.24-.57v-9.24c0-.104.027-.208.054-.286.027-.104.106-.182.16-.26a1 1 0 0 1 .265-.181c.107-.052.213-.052.32-.052h11.75v-1.506H44.951c-.319 0-.611.052-.904.182-.292.104-.532.285-.77.493a2.1 2.1 0 0 0-.506.753c-.106.285-.186.57-.186.882v9.24c0 .312.053.597.16.883.16.285.345.519.558.727m56.489-5.996h-9.464a.84.84 0 0 1-.584-.234.54.54 0 0 1-.16-.26c-.026-.103-.053-.18-.053-.285V13.42c0-.104.026-.207.053-.285.027-.104.106-.182.16-.26a1 1 0 0 1 .265-.181c.107-.052.213-.052.32-.052h9.463a1 1 0 0 1 .292.052.6.6 0 0 1 .24.181.54.54 0 0 1 .159.26c.027.104.053.181.053.285v4.05a.9.9 0 0 1-.053.285c-.026.104-.106.181-.159.26a.56.56 0 0 1-.266.155.46.46 0 0 1-.266.078m-9.464-5.554c-.106 0-.186.025-.292.051a.8.8 0 0 0-.24.156.6.6 0 0 0-.159.234 1 1 0 0 0-.053.26v4.048c0 .104.027.182.053.26q.04.117.16.233a.8.8 0 0 0 .531.208h9.464c.106 0 .186-.026.266-.052a.6.6 0 0 0 .239-.156.38.38 0 0 0 .16-.233 1 1 0 0 0 .053-.26v-4.049c0-.104-.027-.181-.053-.26a.6.6 0 0 0-.16-.233.4.4 0 0 0-.239-.156 1 1 0 0 0-.293-.051z"/></g><defs><clipPath id="a"><path fill="#222" d="M0 0h158.143v36H0z"/></clipPath></defs></svg>
